X: 36
T:Banish Misfortune
M:6/8
L:1/8
R:jig
K:DMix
e|fed cAG| A2 d cAG|F3  DED|FEF GFG|AGA c3  |AGA cde|fed cAG|Add d2 e:|
|:fdd d^cd |f2 g agf|ecc cBc|e2 f gfe|f2 g agf|e2 f gfe|fed cAG|Add d2 :
|
|:e|f2 g e2 f|d2 e c2e |ABA GAG|F2 D DED|c3  cAG|AGA cde|fed cAG|Add d2
:|
